Hatter-kde/actions/22/kstars_indi.svg

<svg xmlns="http://www.w3.org/2000/svg" viewBox="0 0 22 22">
  <defs id="defs3051">
    <style type="text/css" id="current-color-scheme">
      .ColorScheme-Text {
        color:#363636;
      }
      </style>
  </defs>
 <path 
     style="fill:currentColor;fill-opacity:1;stroke:none" 
     d="M 5 3 L 7.8125 18 L 13.25 18 L 17 3 L 5 3 z M 6.5 4 A 0.5 0.5 0 0 1 7 4.5 A 0.5 0.5 0 0 1 6.5 5 A 0.5 0.5 0 0 1 6 4.5 A 0.5 0.5 0 0 1 6.5 4 z M 13.5 4 A 0.5 0.5 0 0 1 14 4.5 A 0.5 0.5 0 0 1 13.5 5 A 0.5 0.5 0 0 1 13 4.5 A 0.5 0.5 0 0 1 13.5 4 z M 10.904297 6.0019531 A 3 3 0 0 1 13.974609 8.6054688 A 3 3 0 0 1 11.394531 11.974609 A 3 3 0 0 1 8.0253906 9.3945312 A 3 3 0 0 1 10.605469 6.0253906 A 3 3 0 0 1 10.904297 6.0019531 z M 12.5 13 A 0.5 0.5 0 0 1 13 13.5 A 0.5 0.5 0 0 1 12.5 14 A 0.5 0.5 0 0 1 12 13.5 A 0.5 0.5 0 0 1 12.5 13 z M 9.5 15 A 0.5 0.5 0 0 1 10 15.5 A 0.5 0.5 0 0 1 9.5 16 A 0.5 0.5 0 0 1 9 15.5 A 0.5 0.5 0 0 1 9.5 15 z "
     class="ColorScheme-Text"
     />
 <path 
     style="fill:currentColor;fill-opacity:0.5;stroke:none" 
     d="M 19.417969 4 C 18.281035 3.9876345 15.66974 5.079043 12.939453 6.7148438 A 3 3 0 0 1 13.634766 7.5722656 C 15.575934 6.2795961 17.021253 5.622268 17.447266 6.0683594 C 17.846966 6.4869594 17.17778 7.5444315 15.738281 9.0820312 C 15.809281 9.2011314 15.851656 9.3476031 15.910156 9.4707031 C 18.092555 7.2937031 20.458028 4.7135969 19.923828 4.1542969 C 19.826838 4.0526969 19.654397 4.0026 19.417969 4 z M 8.2167969 10.113281 C 4.4274508 13.361422 1.3924722 17.220259 2.1035156 17.964844 C 2.2490155 18.117144 3.6552689 17.731625 4.1054688 17.515625 C 4.7923013 17.266425 5.9138636 16.804653 7.2617188 16.064453 L 7.1777344 15.613281 C 5.8816262 16.257781 4.9667135 16.473825 4.6484375 16.140625 C 4.0740403 15.539155 6.0245052 13.559724 8.921875 11.160156 A 3 3 0 0 1 8.2167969 10.113281 z M 2 19 L 2 20 L 20 20 L 20 19 L 2 19 z "
     class="ColorScheme-Text"
     />
    <path
     style="fill:#fdbc4b;fill-opacity:1;stroke:none"
     d="M 6.5 4 A 0.5 0.5 0 0 0 6 4.5 A 0.5 0.5 0 0 0 6.5 5 A 0.5 0.5 0 0 0 7 4.5 A 0.5 0.5 0 0 0 6.5 4 z M 13.5 4 A 0.5 0.5 0 0 0 13 4.5 A 0.5 0.5 0 0 0 13.5 5 A 0.5 0.5 0 0 0 14 4.5 A 0.5 0.5 0 0 0 13.5 4 z M 10.904297 6.0019531 A 3 3 0 0 0 10.605469 6.0253906 A 3 3 0 0 0 8.0253906 9.3945312 A 3 3 0 0 0 11.394531 11.974609 A 3 3 0 0 0 13.974609 8.6054688 A 3 3 0 0 0 10.904297 6.0019531 z M 12.5 13 A 0.5 0.5 0 0 0 12 13.5 A 0.5 0.5 0 0 0 12.5 14 A 0.5 0.5 0 0 0 13 13.5 A 0.5 0.5 0 0 0 12.5 13 z M 9.5 15 A 0.5 0.5 0 0 0 9 15.5 A 0.5 0.5 0 0 0 9.5 16 A 0.5 0.5 0 0 0 10 15.5 A 0.5 0.5 0 0 0 9.5 15 z "
     />
</svg>

<?xml version="1.0" encoding="UTF-8"?>
<svg viewBox="0 0 22 22" xmlns="http://www.w3.org/2000/svg">
 <defs id="defs3051">
  <style id="current-color-scheme" type="text/css">.ColorScheme-Text {
        color:#363636;
      }</style>
 </defs>
 <path class="ColorScheme-Text" d="m5 3 2.8125 15h5.4375l3.75-15h-12zm1.5 1a0.5 0.5 0 0 1 0.5 0.5 0.5 0.5 0 0 1-0.5 0.5 0.5 0.5 0 0 1-0.5-0.5 0.5 0.5 0 0 1 0.5-0.5zm7 0a0.5 0.5 0 0 1 0.5 0.5 0.5 0.5 0 0 1-0.5 0.5 0.5 0.5 0 0 1-0.5-0.5 0.5 0.5 0 0 1 0.5-0.5zm-2.5957 2.002a3 3 0 0 1 3.0703 2.6035 3 3 0 0 1-2.5801 3.3691 3 3 0 0 1-3.3691-2.5801 3 3 0 0 1 2.5801-3.3691 3 3 0 0 1 0.29883-0.023438zm1.5957 6.998a0.5 0.5 0 0 1 0.5 0.5 0.5 0.5 0 0 1-0.5 0.5 0.5 0.5 0 0 1-0.5-0.5 0.5 0.5 0 0 1 0.5-0.5zm-3 2a0.5 0.5 0 0 1 0.5 0.5 0.5 0.5 0 0 1-0.5 0.5 0.5 0.5 0 0 1-0.5-0.5 0.5 0.5 0 0 1 0.5-0.5z" fill="currentColor"/>
 <path class="ColorScheme-Text" d="m19.418 4c-1.1369-0.012366-3.7482 1.079-6.4785 2.7148a3 3 0 0 1 0.69531 0.85742c1.9412-1.2927 3.3865-1.95 3.8125-1.5039 0.3997 0.4186-0.26949 1.4761-1.709 3.0137 0.071 0.1191 0.11338 0.26557 0.17188 0.38867 2.1824-2.177 4.5479-4.7571 4.0137-5.3164-0.09699-0.1016-0.26943-0.1517-0.50586-0.1543zm-11.201 6.1133c-3.7893 3.2481-6.8243 7.107-6.1133 7.8516 0.1455 0.1523 1.5518-0.23322 2.002-0.44922 0.68683-0.2492 1.8084-0.71097 3.1562-1.4512l-0.083984-0.45117c-1.2961 0.6445-2.211 0.86054-2.5293 0.52734-0.5744-0.60147 1.3761-2.5809 4.2734-4.9805a3 3 0 0 1-0.70508-1.0469zm-6.2168 8.8867v1h18v-1h-18z" fill="currentColor" fill-opacity=".5"/>
 <path d="m6.5 4a0.5 0.5 0 0 0-0.5 0.5 0.5 0.5 0 0 0 0.5 0.5 0.5 0.5 0 0 0 0.5-0.5 0.5 0.5 0 0 0-0.5-0.5zm7 0a0.5 0.5 0 0 0-0.5 0.5 0.5 0.5 0 0 0 0.5 0.5 0.5 0.5 0 0 0 0.5-0.5 0.5 0.5 0 0 0-0.5-0.5zm-2.5957 2.002a3 3 0 0 0-0.29883 0.023438 3 3 0 0 0-2.5801 3.3691 3 3 0 0 0 3.3691 2.5801 3 3 0 0 0 2.5801-3.3691 3 3 0 0 0-3.0703-2.6035zm1.5957 6.998a0.5 0.5 0 0 0-0.5 0.5 0.5 0.5 0 0 0 0.5 0.5 0.5 0.5 0 0 0 0.5-0.5 0.5 0.5 0 0 0-0.5-0.5zm-3 2a0.5 0.5 0 0 0-0.5 0.5 0.5 0.5 0 0 0 0.5 0.5 0.5 0.5 0 0 0 0.5-0.5 0.5 0.5 0 0 0-0.5-0.5z" fill="#fdbc4b"/>
</svg>
